public/svg/profiles/battlenet.svg

<?xml version="1.0" encoding="UTF-8" standalone="no"?>
<svg width="50px" height="50px" viewBox="0 0 50 50" version="1.1" xmlns="http://www.w3.org/2000/svg" xmlns:xlink="http://www.w3.org/1999/xlink">
    <defs>
        <radialGradient cx="54.816%" cy="48.506%" fx="54.816%" fy="48.506%" r="50.133%" id="radialGradient-1">
            <stop stop-color="#016998" offset="0%"></stop>
            <stop stop-color="#006B9A" offset="0%"></stop>
            <stop stop-color="#00C0FF" offset="100%"></stop>
        </radialGradient>
    </defs>
    <g stroke="none" stroke-width="1" fill="none" fill-rule="evenodd">
        <g>
            <g>
                <g transform="translate(0.000000, 0.581395)">
                    <ellipse id="Oval" fill="#192338" cx="25" cy="24.4186047" rx="25" ry="24.4186047"></ellipse>
                    <path d="M44.6428571,28.505814 C44.4440476,27.1023256 43.5761905,26.1197674 42.6119048,25.1767442 C41.7964286,24.3837209 40.8916667,23.6883721 39.6880952,22.8895349 C40.5642857,22.994186 41.1142857,22.9197674 41.6559524,22.7034884 C42.9952381,22.172093 43.222619,21.3453488 42.8392857,20.2069767 C42.7482778,19.9243428 42.6244565,19.6528091 42.4702381,19.3976744 C41.8154762,18.3372093 40.8452381,17.5837209 39.8452381,16.8860465 C39.3820449,16.5702308 38.9161556,16.2582044 38.447619,15.95 C38.447619,15.95 42.35,7.03837209 41.947619,6.79186047 C41.897619,6.76046512 37.2595238,15.5453488 37.2595238,15.5453488 C37.2595238,15.5453488 34.7654762,14.6116279 33.35,14.3476744 C31.4238095,13.9837209 29.85,13.8046512 29.85,13.8046512 C29.85,13.8046512 29.8214286,13.6802326 29.6380952,13.3395349 C29.0798359,12.3216977 28.4654406,11.3341994 27.797619,10.3813953 C26.6285714,8.68372093 25.4202381,6.83953488 23.6380952,5.71046512 C22.0857143,4.72906977 19.4440476,5.0244186 18.0738095,6.83488372 C16.9666667,8.30348837 16.8154762,11.9976744 16.8154762,11.9976744 C16.8154762,11.9976744 16.1702381,11.2244186 15.7714286,10.9162791 C14.702381,10.0906977 13.547619,10.122093 12.5857143,11.2744186 C11.7964286,12.2197674 11.4785714,13.1616279 11.3380952,14.5232558 C11.2619048,15.2488372 11.3440476,16.8860465 11.3440476,16.8860465 C6.72857143,17.0895349 2.99880952,19.9627907 2.99880952,19.9627907 C2.99880952,19.9627907 8.74642857,17.9023256 11.477381,18.0011628 C11.477381,18.0011628 11.6583333,20.2255814 11.9511905,21.5476744 C12.2637103,22.9503893 12.7682463,24.3055965 13.4511905,25.5767442 C13.4511905,25.5767442 9.94047619,30.6860465 9.575,34.6511628 C9.4047619,36.5151163 10.1369048,37.9837209 11.9607143,38.5290698 C12.3107143,38.6337209 12.6392857,38.6709302 12.9892857,38.6802326 C15.5535714,38.75 18.6833333,37.2430233 18.6833333,37.2430233 C18.6833333,37.2430233 18.1297619,38.1383721 18.1238095,38.8093023 C18.1154762,40.2325581 18.6238095,40.9651163 20.0809524,41.0069767 C20.9963628,41.0438913 21.9103316,40.9056391 22.7714286,40.6 C23.6595238,40.2802326 25.4357143,39.4418605 25.4357143,39.4418605 L31.0714286,45.9104651 L26.6214286,38.6639535 C26.6214286,38.6639535 28.9904762,36.9662791 30.1238095,35.655814 C31.0916667,34.5395349 32.1285714,32.9976744 32.1285714,32.9976744 C32.1285714,32.9976744 32.6214286,33.005814 32.8904762,32.9976744 C34.9904762,32.9546512 37.0857143,33.1139535 39.1904762,32.7883721 C40.6785714,32.5639535 42.047619,32.1302326 43.3333333,31.4325581 C44.397619,30.855814 44.8178571,29.7232558 44.6428571,28.5081395 L44.6428571,28.505814 Z M21.3690476,10.1127907 C22.0059524,9.27325581 23.3119048,9.33953488 24.3297619,9.95 C26.2964286,11.1313953 27.4369048,13.6802326 27.4369048,13.6802326 C23.6035714,13.5965116 20.0202381,15.45 20.0202381,15.45 C20.0202381,15.45 20.052381,11.8418605 21.3678571,10.1127907 L21.3690476,10.1127907 Z M15.65,12.9383721 C16.2619048,12.9383721 16.6345238,13.5895349 16.6345238,13.5895349 C16.6345238,13.5895349 16.5416667,15.205814 16.8488095,16.7988372 L13.697619,16.7872093 C13.697619,16.7872093 13.0583333,12.9383721 15.65,12.9383721 L15.65,12.9383721 Z M15.1,34.0709302 C13.4535714,33.9953488 12.6357143,32.8732558 13.0166667,31.305814 C13.3595238,29.9034884 14.6357143,27.3406977 14.6357143,27.3406977 C17.8714286,32.5093023 19.0440476,33.0116279 19.0440476,33.0116279 C19.0440476,33.0116279 16.4797619,34.1395349 15.1,34.0697674 L15.1,34.0709302 Z M21.802381,38.2569767 C21.1142857,38.3406977 20.2904762,38.1372093 20.0845238,37.7337209 C19.8428571,37.2569767 20.0369048,36.4395349 20.572619,36.0127907 C21.2095238,35.5093023 22.6166667,34.5709302 22.6166667,34.5709302 L24.3333333,37.4162791 C24.3333333,37.4162791 22.6761905,38.1546512 21.8035714,38.2581395 L21.802381,38.2569767 Z M31.3095238,31.3732558 C29.6190476,33.8848837 27.8452381,35.1755814 25.5059524,36.6918605 C25.1011905,35.7848837 24.8535714,35.2360465 24.4761905,34.3918605 C25.6702381,33.8488372 28.1583333,32.9453488 28.1583333,32.9453488 C28.1583333,32.9453488 25.2892857,33.1953488 24.602381,33.2848837 C27.3083333,31.377907 33.6297619,23.8430233 33.6297619,23.8430233 L31.8488095,22.9593023 C31.8488095,22.9593023 27.602381,27.2406977 25.6464286,28.8848837 C24.3547619,29.9697674 20.822619,32.2081395 20.822619,32.2081395 C20.822619,32.2081395 18.1345238,29.2232558 17.0845238,27.7081395 C15.877381,25.9639535 15.0964286,24.2988372 14.3666667,21.8883721 C14.0071429,20.7 13.652381,18.1023256 13.652381,18.1023256 C13.652381,18.1023256 15.8452381,18.2802326 16.6761905,18.3639535 C16.2880952,19.794186 15.9095238,22.6848837 15.9095238,22.6848837 C15.9095238,22.6848837 16.4190476,20.1267442 17.447619,19.094186 C18.277381,23.2418605 21.1952381,31.2918605 21.1952381,31.2918605 L22.7690476,30.222093 C22.7690476,30.222093 21.2190476,24.0872093 20.5714286,21.7627907 C20.0071429,19.7395349 20.0571429,16.2488372 20.0571429,16.2488372 C20.0571429,16.2488372 20.8309524,15.9813953 21.45,15.7906977 C23.5880952,15.1197674 25.0928571,14.9302326 27.4916667,15.1162791 C28.7428196,15.2262794 29.9831615,15.4323427 31.2011905,15.7325581 C32.875,16.1337209 34.5392857,16.5872093 36.052381,17.5186047 C35.4690476,18.2593023 34.3142857,19.6604651 34.3142857,19.6604651 C34.3142857,19.6604651 32.5404762,17.6104651 30.9571429,16.8930233 C32.0345238,17.9837209 32.9166667,18.8534884 33.5607143,20.1174419 C29.3547619,18.7976744 20.7154762,17.2151163 20.7154762,17.2151163 L20.7666667,18.9593023 C20.7666667,18.9593023 25.7309524,20.0325581 28.0761905,20.877907 C31.927381,22.2709302 34.6190476,23.8197674 34.6190476,23.8197674 C34.6190476,23.8197674 32.8178571,29.1395349 31.3095238,31.3744186 L31.3095238,31.3732558 Z M38.3738095,30.2895349 C36.0559524,31.4488372 33.0404762,31.3476744 33.0404762,31.3476744 C34.2666667,29.1918605 35.3380952,26.5046512 35.5595238,24.3511628 C35.5595238,24.3511628 38.1238095,26.0139535 39.1666667,28.0465116 C39.5880952,28.8686047 39.3035714,29.8255814 38.3738095,30.2906977 L38.3738095,30.2895349 Z M38.5559524,22.2546512 L35.5416667,20.95 L37.3440476,18.2348837 C38.3166667,18.8011628 39.2107143,19.3453488 39.6464286,20.4023256 C39.8345238,20.855814 39.952381,21.3593023 39.6392857,21.6930233 C39.1583333,22.1953488 38.5559524,22.2546512 38.5559524,22.2546512 L38.5559524,22.2546512 Z" id="Shape" fill="url(#radialGradient-1)"></path>
                </g>
            </g>
        </g>
    </g>
</svg>

<svg width="50" height="50" viewBox="0 0 50 50" xmlns="http://www.w3.org/2000/svg"><defs><radialGradient cx="54.816%" cy="48.506%" fx="54.816%" fy="48.506%" r="50.133%" id="a"><stop stop-color="#016998" offset="0%"/><stop stop-color="#006B9A" offset="0%"/><stop stop-color="#00C0FF" offset="100%"/></radialGradient></defs><g transform="translate(0 .58)" fill="none" fill-rule="evenodd"><ellipse fill="#192338" cx="25" cy="24.419" rx="25" ry="24.419"/><path d="M44.643 28.506c-.2-1.404-1.067-2.386-2.03-3.33-.817-.792-1.72-1.488-2.925-2.286.876.104 1.426.03 1.968-.187 1.34-.53 1.567-1.358 1.183-2.496-.092-.283-.216-.554-.37-.81-.655-1.06-1.625-1.813-2.625-2.51-.463-.317-.93-.63-1.397-.937 0 0 3.902-8.912 3.5-9.158-.05-.032-4.688 8.753-4.688 8.753s-2.495-.933-3.91-1.197c-1.926-.364-3.5-.543-3.5-.543s-.03-.125-.212-.465c-.558-1.018-1.173-2.006-1.84-2.96-1.17-1.696-2.378-3.54-4.16-4.67-1.552-.98-4.194-.686-5.564 1.125-1.107 1.468-1.26 5.163-1.26 5.163s-.644-.774-1.043-1.082c-1.068-.825-2.222-.794-3.184.358-.79.946-1.107 1.888-1.248 3.25-.076.725.006 2.362.006 2.362C6.73 17.09 3 19.963 3 19.963s5.746-2.06 8.477-1.962c0 0 .18 2.226.474 3.548.314 1.402.818 2.758 1.5 4.03 0 0-3.51 5.108-3.875 9.073-.17 1.865.562 3.334 2.386 3.88.35.104.68.14 1.03.15 2.564.07 5.693-1.437 5.693-1.437s-.553.895-.56 1.566c-.008 1.423.5 2.155 1.958 2.197.916.037 1.83-.1 2.69-.407.89-.32 2.666-1.158 2.666-1.158l5.635 6.468-4.45-7.246s2.37-1.698 3.504-3.008c.968-1.116 2.005-2.658 2.005-2.658s.49.008.76 0c2.1-.043 4.196.116 6.3-.21 1.49-.224 2.858-.658 4.143-1.355 1.065-.577 1.485-1.71 1.31-2.925v-.002zM21.37 10.113c.636-.84 1.942-.773 2.96-.163 1.966 1.18 3.107 3.73 3.107 3.73-3.833-.083-7.417 1.77-7.417 1.77s.032-3.608 1.348-5.337zm-5.72 2.825c.612 0 .985.652.985.652s-.093 1.616.214 3.21l-3.152-.013s-.64-3.85 1.952-3.85zM15.1 34.07c-1.646-.075-2.464-1.197-2.083-2.764.343-1.403 1.62-3.965 1.62-3.965 3.234 5.17 4.407 5.672 4.407 5.672S16.48 34.14 15.1 34.07zm6.702 4.187c-.688.084-1.512-.12-1.717-.523-.242-.477-.048-1.294.488-1.72.637-.505 2.044-1.443 2.044-1.443l1.716 2.846s-1.657.74-2.53.842zm9.508-6.884c-1.69 2.512-3.465 3.803-5.804 5.32-.405-.908-.652-1.457-1.03-2.3 1.194-.544 3.682-1.448 3.682-1.448s-2.87.25-3.556.34c2.706-1.907 9.028-9.442 9.028-9.442l-1.78-.884s-4.248 4.28-6.204 5.925c-1.29 1.085-4.823 3.323-4.823 3.323s-2.688-2.985-3.738-4.5c-1.208-1.744-1.99-3.41-2.718-5.82-.36-1.188-.715-3.786-.715-3.786s2.193.178 3.024.262c-.388 1.43-.766 4.32-.766 4.32s.51-2.557 1.538-3.59c.83 4.148 3.747 12.198 3.747 12.198l1.574-1.07s-1.55-6.135-2.2-8.46c-.563-2.022-.513-5.513-.513-5.513s.774-.27 1.393-.46c2.138-.67 3.643-.86 6.042-.674 1.25.11 2.49.316 3.71.617 1.673.4 3.337.854 4.85 1.786-.583.74-1.738 2.14-1.738 2.14s-1.774-2.05-3.357-2.767c1.078 1.09 1.96 1.96 2.604 3.224-4.205-1.32-12.845-2.902-12.845-2.902l.052 1.744s4.964 1.073 7.31 1.918c3.85 1.393 6.542 2.942 6.542 2.942s-1.802 5.32-3.31 7.554zm7.064-1.083c-2.318 1.16-5.334 1.058-5.334 1.058 1.227-2.156 2.298-4.843 2.52-6.997 0 0 2.564 1.664 3.607 3.697.42.822.137 1.78-.793 2.244zm.182-8.035l-3.014-1.305 1.802-2.715c.973.566 1.867 1.11 2.302 2.167.19.454.306.957-.007 1.29-.482.503-1.084.563-1.084.563z" fill="url(#a)"/></g></svg>
